!!!OTL: STAND ICH AUF HOHEM BERGE
!!!ARE: Europa, Mitteleuropa, Deutschland
!!!SCT: Z0064
!!!YEM: Copyright 1995, estate of Helmut Schaffrath.
**kern
*ICvox
*Ivox
*M2/4
*k[f#]
*G:
{8d
=1
8b
8g
8dd
8b
=2
4b
8a
8a
=3
8b
8g
8dd
8b
=4
4a
8r}
{8a
=5
8dd
8dd
8dd
8dd
=6
8dd
8b
4g
=7
4cc
4ee
=8
8dd
8b
8g}
{8dd
=9
8dd
8cc
8a
8f#
=10
4g
8r}
==
!!!AGN: Sagen - Lied, Romanze
!!!ONB: ESAC (Essen Associative Code) Database: ZUCCAL
!!!AMT: simple duple
!!!AIN: vox
!!!EED: Helmut Schaffrath
!!!EEV: 1.0
*-
